X: 11
P: Polska spelad av J.Norrman i \"Ojaren, Str\"om
R: \AAtabaks-polska
C: Arr. G\"oran Olsson-F\"ollinger
Z: John Chambers <jc@trillian.mit.edu>
N: Original in 3/4; converted to 9/16 by John Chambers
M: 9/16
L: 1/16
K: Dm
|: "Dm"A2B A2G F2E | "A"D(^CD) E(FE) "Dm"D3- | D2F A2d ^c2d |1,3 "E"e(fe) d(^ce) "A"e2c :|2,4 "A"e(fe) "Dm"d6 :|
|: "Gm"d2b ba2 "Dm"a3- | "A"a2e g(ag) "Dm"f3- | f2e d2^c d2f | "E"e(fe) d2^c "A"A3- |
|  "Gm"d2b ba2 "Dm"a3- | "A"a2e g(ag) "Dm"f3- | f2e d2^c "A"d2f | e(fe) "Dm"d6 :|
|: "Dm"d2^c d2e f2g | "Gm"a2g b(ag) "A"a3- | "Dm"a2g f2e d2f | "E"ezd ^c(dc) "A"A3- |
|  "Dm"A2^c d2e f2g | "Gm"a2g b(ag) "A"a3- | "Dm"a2g f2e "A"d2f | e(^ce) "Dm"d6 :|
